z_dist/img/icons/crypto/terra-LUNA.svg

<svg width="64" height="64" viewBox="0 0 64 64" fill="none" xmlns="http://www.w3.org/2000/svg">
<g clip-path="url(#clip0_234_2733)">
<rect y="0.000488281" width="64" height="64" rx="4" fill="#172852"/>
<path d="M25.7759 14.3013C29.5231 12.8997 33.7407 12.8965 37.5583 14.0485C42.5279 15.5909 46.7231 19.3413 48.9151 24.0485C49.5199 25.3893 50.0991 26.7877 50.1567 28.2789C47.3631 26.6597 44.3007 25.6101 41.2319 24.6533C36.3231 22.8837 31.1839 21.6549 26.5375 19.2229C25.4559 18.5765 24.0767 17.9141 23.7823 16.5669C23.6639 15.4021 24.8959 14.7525 25.7759 14.3013Z" fill="#FFD83D"/>
<path d="M14.464 25.6292C15.5488 22.6852 17.328 19.9524 19.7439 17.9268C20.3583 22.9796 22.5087 27.8628 26.0607 31.5364C30.3199 35.962 36.3871 38.6788 42.5599 38.5764C45.0111 38.6532 47.4078 38.0868 49.7982 37.6292C47.4462 46.1285 38.1311 51.7701 29.5007 50.4133C24.2911 49.7477 19.4815 46.6629 16.5792 42.3076C13.3056 37.4948 12.48 31.1044 14.464 25.6292Z" fill="#FFD83D"/>
<path d="M41.2319 24.6533C44.3007 25.6101 47.3631 26.6597 50.1567 28.2789L50.3455 28.3781C50.6047 30.3269 50.7935 32.3141 50.4479 34.2661C49.0431 33.6709 47.9039 32.6245 46.7135 31.6997C44.4223 29.7925 42.0831 27.6101 41.2319 24.6533Z" fill="#FF6F03"/>
</g>
<defs>
<clipPath id="clip0_234_2733">
<rect width="64" height="64" fill="white" transform="translate(0 0.000488281)"/>
</clipPath>
</defs>
</svg>

<svg width="64" height="64" fill="none" xmlns="http://www.w3.org/2000/svg"><g clip-path="url(#clip0_234_2733)"><rect width="64" height="64" rx="4" fill="#172852"/><path d="M25.776 14.301c3.747-1.401 7.965-1.405 11.782-.252 4.97 1.542 9.165 5.292 11.357 10 .605 1.34 1.184 2.739 1.242 4.23-2.794-1.62-5.856-2.669-8.925-3.626-4.909-1.77-10.048-2.998-14.694-5.43-1.082-.646-2.461-1.309-2.756-2.656-.118-1.165 1.114-1.815 1.994-2.266zM14.464 25.63c1.085-2.945 2.864-5.678 5.28-7.703.614 5.053 2.765 9.936 6.317 13.61 4.259 4.425 10.326 7.142 16.499 7.04 2.451.076 4.848-.49 7.238-.948-2.352 8.5-11.667 14.141-20.297 12.784-5.21-.665-10.02-3.75-12.922-8.105-3.273-4.813-4.099-11.204-2.115-16.679z" fill="#FFD83D"/><path d="M41.232 24.653c3.069.957 6.131 2.007 8.925 3.626l.189.1c.259 1.948.448 3.935.102 5.887-1.405-.595-2.544-1.642-3.734-2.566-2.292-1.907-4.63-4.09-5.482-7.047z" fill="#FF6F03"/></g><defs><clipPath id="clip0_234_2733"><path fill="#fff" d="M0 0h64v64H0z"/></clipPath></defs></svg>
